!!!!SEGMENT: pl-wnifc--13846--097_anonim--piesni-polskie-i-ruskie-ludu-galicyjskiego-97-wezme-ja-zupan-wezme-ja-kontusz.krn
!!!cenid: 18xx:3319
!!!COM: Anonim
!!!COM-rismID: pe30004985
!!!CDT:
!!!CNT:
!!!GTL: Pieśni polskie i ruskie ludu galicyjskiego
!!!OTL: 97. Wezmę ja żupan, wezmę ja kontusz
!!!PDT: 1833
!!!AGN:
!!!SMS-siglum: PL-Wnifc
!!!SMS-shelfmark: 13846
!!!SMS-shelfwork: 097 G
!!!NIFC-rismSourceID: 1001036701
!!!NIFC-rismChildID: 1001039189
!!!NIFC-islandoraID: nifc:210326
!!!URL-pdf-islandora: https://repozytorium.nifc.pl/islandora/object/nifc%3A210326/datastream/PDF/view
!!!URL-scan:
!!!ONB-nifc:
!!!AIN: 1 piano 1 soprn
!!!key: a
**kern	**kern	**dynam	**kern	**text
*group2	*group2	*	*group1	*
*part2	*part2	*part2	*part1	*part1
*staff3	*staff2	*	*staff1	*staff1
*I"[Piano]	*I"[Piano]	*	*I"[Soprano]	*
*Ipiano	*Ipiano	*	*Isoprn	*
*ICklav	*ICklav	*	*ICvox	*
*IGacmp	*IGacmp	*	*IGsolo	*
*clefF4	*clefG2	*	*clefG2	*
*k[]	*k[]	*	*k[]	*
*a:	*a:	*	*a:	*
*M3/4	*M3/4	*	*M3/4	*
=1-	=1-	=1-	=1-	=1-
*	*	*^	*	*
!	!	!	!	!LO:TX:b:B:rj:t=E.110.	!
!	!	!LO:DY:rj	!LO:DY:b=2:rj	!LO:TX:a:B:t=Alla Polaca	!
4AAA/ 4AA/	4A/ 4c/ 4a/	f	f	4a/	We-
4r	8c/L 8e/ 8cc/	.	.	8cc/	-zm&#281;
.	8B/ 8d/ 8b/	.	.	8b/	ja
4EE/ 4E/	8A/ 8c/ 8a/	.	.	8a/	&#380;u-
.	8G#X/J 8B/ 8g#X/	.	.	8g#X/	-pan,
*	*	*v	*v	*	*
=2	=2	=2	=2	=2
4AAA/ 4AA/	4A/ 4c/ 4a/	.	4a/	we-
4r	8c/L 8e/ 8cc/	.	8cc/	-zm&#281;
.	8B/ 8d/ 8b/	.	8b/	ja
4EE/ 4E/	8A/ 8c/ 8a/	.	8a/	kon-
.	8G#X/J 8B/ 8g#X/	.	8g#X/	-tusz,
!!LO:LB:g=original
=3	=3	=3	=3	=3
*	*^	*	*	*
4AAA/ 4AA/	8A/L 8c/ 8a/	2ryy	.	8a\	sza-
.	8e/J 8g#X/ 8b/	.	.	8b\	-bl&#281;
4AA/	4e\ 4a\ 4cc\	.	.	4cc\	przy-
4FF/ 4F/	4dd/	4a\	.	4dd\	-pa-
=4	=4	=4	=4	=4	=4
2EE\;< 2E\	2g#X/ 2ee/	2g#\	.	2ee\;>	-sz&#281;
4r;>	4r;>	4ryy	.	4r;>	.
*	*v	*v	*	*	*
!!LO:LB:g=original
=5	=5	=5	=5	=5
4AA/ 4A/	8e/L 8cc/ 8ee/	.	8ee\	pòj-
.	8e/J 8cc/ 8ee/	.	8ee\	-d&#281;
4r	8f/L 8dd/ 8ff/	.	8ff\	do
.	8e/ 8cc/ 8ee/	.	8ee\	dziew-
4AAA/ 4AA/	8d/ 8b/ 8dd/	.	8dd\	-czy-
.	8c/J 8a/ 8cc/	.	8cc\	-ny,
=6	=6	=6	=6	=6
4EE/ 4E/	8d/L 8b/ 8dd/	.	8dd\	pòj-
.	8d/J 8b/ 8dd/	.	8dd\	-d&#281;
4r	8e/L 8cc/ 8ee/	.	8ee\	do
.	8d/ 8b/ 8dd/	.	8dd\	je-
4EE/ 4E/	8c/ 8a/ 8cc/	.	8cc\	-dy-
.	8B/J 8g#X/ 8b/	.	8b\	-nej
!!LO:LB:g=original
=7	=7	=7	=7	=7
*^	*^	*	*	*
8CC/L 8C/	8CC\L	8e/L 8a/	2ryy	.	8a/	tam
8AAJ/	8AA\J	8e/J 8cc/	.	.	8cc/	si&#281;
4EE/	2ryy	4e/ 4a/ 4cc/ 4ee/	.	.	4ee\	u-
4E\ 4B\ 4d\	.	4g#X/	4e\	.	4g#X/	-cie-
*v	*v	*	*	*	*	*
=8	=8	=8	=8	=8	=8
2A\ 2c\	2a/	2e\	.	2a/	-sz&#281;.
4r	4r	4ryy	.	4r	.
*	*v	*v	*	*	*
=:|!	=:|!	=:|!	=:|!	=:|!
*-	*-	*-	*-	*-
!!!system-decoration: g1,[{g2}]
!!!RDF**kern: > = above
!!!RDF**kern: < = below
!!!ENC: Jędrzej Mróz
!!!END: 2021-11-11
!!!YEC: Copyright 2022 Narodowy Instytut Fryderyka Chopina (https://polishscores.org)
!!!YEM: License CC-BY-4.0 (https://creativecommons.org/licenses/by/4.0)
